fs/share_screen_person_p_20_regular.svg

<svg viewBox="0 0 20 20" fill="none" xmlns="http://www.w3.org/2000/svg" height="1em" width="1em">
  <path d="M2 6.75C2 5.23122 3.23122 4 4.75 4H15.25C16.7688 4 18 5.23122 18 6.75V10.3411C17.744 9.95605 17.4014 9.63354 17 9.40135V6.75C17 5.7835 16.2165 5 15.25 5H4.75C3.7835 5 3 5.7835 3 6.75V13.25C3 14.2165 3.7835 15 4.75 15H11.4998C11.2815 15.2907 11.125 15.6306 11.05 16H4.75C3.23122 16 2 14.7688 2 13.25V6.75ZM15.5 14C16.6046 14 17.5 13.1046 17.5 12C17.5 10.8954 16.6046 10 15.5 10C14.3954 10 13.5 10.8954 13.5 12C13.5 13.1046 14.3954 14 15.5 14ZM15.5 19C18 19 19 17.7452 19 16.5C19 15.6716 18.3284 15 17.5 15H13.5C12.6716 15 12 15.6716 12 16.5C12 17.7499 13 19 15.5 19ZM6.5 7C6.22386 7 6 7.22386 6 7.5V12.5C6 12.7761 6.22386 13 6.5 13C6.77614 13 7 12.7761 7 12.5V11H8C9.10457 11 10 10.1046 10 9C10 7.89543 9.10457 7 8 7H6.5ZM8 10H7V8H8C8.55228 8 9 8.44772 9 9C9 9.55228 8.55228 10 8 10Z" fill="#212121"/>
</svg>

<svg viewBox="0 0 20 20" fill="none" xmlns="http://www.w3.org/2000/svg" height="1em" width="1em">
  <path d="M2 6.75A2.75 2.75 0 0 1 4.75 4h10.5A2.75 2.75 0 0 1 18 6.75v3.591a3.015 3.015 0 0 0-1-.94V6.75A1.75 1.75 0 0 0 15.25 5H4.75A1.75 1.75 0 0 0 3 6.75v6.5c0 .966.784 1.75 1.75 1.75h6.75a2.49 2.49 0 0 0-.45 1h-6.3A2.75 2.75 0 0 1 2 13.25v-6.5ZM15.5 14a2 2 0 1 0 0-4 2 2 0 0 0 0 4Zm0 5c2.5 0 3.5-1.255 3.5-2.5a1.5 1.5 0 0 0-1.5-1.5h-4a1.5 1.5 0 0 0-1.5 1.5c0 1.25 1 2.5 3.5 2.5Zm-9-12a.5.5 0 0 0-.5.5v5a.5.5 0 0 0 1 0V11h1a2 2 0 1 0 0-4H6.5ZM8 10H7V8h1a1 1 0 0 1 0 2Z" fill="#212121"/>
</svg>
